X: 555
T:Random Jig
R:jig
C:James Hill
S:John Skelton East Durham 2002
N:the third part is good for your lip.
Z:lesl
P:3
M:6/8
N:Posted to the woodenflute mailing list, July 2002
K:D
A|:d2d fed|cea ecA|B2B efg|1 Bed cBA:|2 Bec dzA|
|:d2d fed|cea ecA|B2B efg|1 Bed cBA:|2 Bec dzA||
|:DFA FAd|Adf dfa|1 afa geg|fdf ecA:|2 dcB fed|cdB A2z|
|:DFA FAd|Adf dfa|1 afa geg|fdf ecA:|2 dcB fed|cdB A2z||
|:Aaa Bbb|Ggg Aaa|Ddd efg|1 Bed cBA:|2 Bec d2z|
|:Aaa Bbb|Ggg Aaa|Ddd efg|1 Bed cBA:|2 Bec d2z||
<end>
<start>
